public/external-logos/amazon-logo.svg

<svg width="113" height="34" viewBox="0 0 113 34" fill="none" xmlns="http://www.w3.org/2000/svg">
<g clip-path="url(#clip0_437_1531)">
<path fill-rule="evenodd" clip-rule="evenodd" d="M70.1052 26.5887C63.5399 31.4168 54.0253 34.0001 45.8215 34.0001C34.3294 34.0001 23.9899 29.7585 16.159 22.6968C15.5488 22.1441 16.0912 21.3883 16.837 21.8169C25.2781 26.724 35.7306 29.6683 46.5108 29.6683C53.788 29.6683 61.7884 28.168 69.1447 25.0432C70.2634 24.5807 71.19 25.7764 70.1052 26.5887Z" fill="#ff9900"/>
<path fill-rule="evenodd" clip-rule="evenodd" d="M72.8285 23.4637C71.9923 22.3921 67.2802 22.9561 65.1671 23.2043C64.523 23.2833 64.4213 22.7192 65.0089 22.3244C68.7605 19.6847 74.919 20.4518 75.6422 21.3317C76.3654 22.2229 75.4501 28.3821 71.9245 31.3264C71.3821 31.7776 70.8623 31.5407 71.1109 30.9428C71.9019 28.9687 73.676 24.5467 72.8285 23.4637Z" fill="#ff9900"/>
<path fill-rule="evenodd" clip-rule="evenodd" d="M65.314 3.71128V1.15057C65.314 0.767024 65.6078 0.507568 65.9581 0.507568H77.4502C77.8231 0.507568 78.1169 0.778305 78.1169 1.15057V3.3503C78.1169 3.72257 77.8005 4.19635 77.2468 4.96344L71.303 13.4465C73.5178 13.3901 75.8569 13.7173 77.857 14.8453C78.309 15.1048 78.4333 15.477 78.4672 15.838V18.568C78.4672 18.9402 78.0491 19.3802 77.6197 19.1546C74.0828 17.3045 69.382 17.1015 65.4722 19.1771C65.0767 19.3914 64.6586 18.9628 64.6586 18.5905V15.996C64.6586 15.5786 64.6586 14.8679 65.0767 14.2362L71.981 4.35428H65.9807C65.6078 4.35428 65.314 4.09483 65.314 3.71128Z" fill="black"/>
<path fill-rule="evenodd" clip-rule="evenodd" d="M23.3797 19.7073H19.888C19.549 19.6847 19.2891 19.4366 19.2665 19.1094V1.19568C19.2665 0.8347 19.5716 0.552683 19.9445 0.552683H23.2102C23.5492 0.563963 23.8204 0.823419 23.843 1.15056V3.49694H23.9108C24.7583 1.22952 26.3629 0.18042 28.5099 0.18042C30.7021 0.18042 32.0694 1.2408 33.0525 3.49694C33.9 1.22952 35.821 0.18042 37.8776 0.18042C39.3466 0.18042 40.9512 0.789577 41.923 2.14326C43.0304 3.65487 42.8044 5.84333 42.8044 7.76104V19.0643C42.8044 19.4253 42.4993 19.7073 42.1264 19.7073H38.6347C38.2844 19.6847 38.0019 19.4027 38.0019 19.0643V9.56596C38.0019 8.81015 38.0697 6.92627 37.9002 6.20431C37.6403 4.99728 36.8606 4.65885 35.8436 4.65885C34.9961 4.65885 34.1147 5.22289 33.7531 6.12534C33.3915 7.0278 33.4254 8.53941 33.4254 9.55467V19.053C33.4254 19.414 33.1203 19.696 32.7474 19.696H29.267C28.9167 19.6735 28.6342 19.3914 28.6342 19.053V9.55467C28.6342 7.55799 28.9619 4.61373 26.4759 4.61373C23.9673 4.61373 24.0577 7.47903 24.0577 9.55467V19.053C24.0577 19.414 23.7526 19.7073 23.3797 19.7073Z" fill="black"/>
<path fill-rule="evenodd" clip-rule="evenodd" d="M88.027 0.169189C93.2137 0.169189 96.0274 4.61378 96.0274 10.2767C96.0274 15.7365 92.9199 20.0796 88.027 20.0796C82.9307 20.0796 80.1622 15.635 80.1622 10.0849C80.1509 4.51226 82.9646 0.169189 88.027 0.169189ZM88.0496 3.83541C85.4732 3.83541 85.315 7.33243 85.315 9.52088C85.315 11.7093 85.2811 16.3908 88.027 16.3908C90.739 16.3908 90.8633 12.6231 90.8633 10.3218C90.8633 8.8102 90.7955 7.00529 90.3435 5.57264C89.948 4.32048 89.1683 3.83541 88.0496 3.83541Z" fill="black"/>
<path fill-rule="evenodd" clip-rule="evenodd" d="M102.751 19.7073H99.2705C98.9202 19.6848 98.6377 19.4028 98.6377 19.0643V1.13933C98.6716 0.812189 98.9541 0.552733 99.3157 0.552733H102.559C102.864 0.564014 103.112 0.778347 103.18 1.04908V3.79029H103.248C104.231 1.34238 105.598 0.169189 108.017 0.169189C109.587 0.169189 111.113 0.733224 112.096 2.27868C113.011 3.71133 113.011 6.12539 113.011 7.85134V19.132C112.977 19.4479 112.684 19.6961 112.333 19.6961H108.83C108.514 19.6735 108.243 19.4366 108.209 19.132V9.40807C108.209 7.44523 108.435 4.57994 106.017 4.57994C105.169 4.57994 104.378 5.14397 103.994 6.01259C103.497 7.10681 103.44 8.20104 103.44 9.40807V19.0531C103.429 19.414 103.124 19.7073 102.751 19.7073Z" fill="black"/>
<path fill-rule="evenodd" clip-rule="evenodd" d="M56.1497 11.1453C56.1497 12.5103 56.1836 13.6384 55.4943 14.8454C54.9406 15.8268 54.0479 16.436 53.0761 16.436C51.7314 16.436 50.9517 15.4094 50.9517 13.9091C50.9517 10.931 53.6185 10.3895 56.161 10.3895L56.1497 11.1453ZM59.6753 19.651C59.4493 19.854 59.1103 19.8766 58.8504 19.7299C57.6865 18.7711 57.4831 18.3198 56.839 17.4061C54.918 19.3577 53.562 19.9443 51.076 19.9443C48.1267 19.9443 45.8441 18.1281 45.8441 14.507C45.8441 11.6755 47.3809 9.74652 49.5731 8.79894C51.4715 7.96417 54.127 7.81752 56.1497 7.58062V7.1294C56.1497 6.29462 56.2175 5.3132 55.7203 4.60252C55.3022 3.95952 54.4773 3.68879 53.7541 3.68879C52.4207 3.68879 51.2342 4.37691 50.9404 5.78699C50.8839 6.10285 50.6466 6.40743 50.3302 6.42999L46.9402 6.06901C46.6577 6.00133 46.33 5.77571 46.4204 5.33577C47.2114 1.24088 50.9291 0 54.2513 0C55.9576 0 58.1724 0.451228 59.5171 1.73723C61.2234 3.3278 61.0539 5.43729 61.0539 7.73855V13.1758C61.0539 14.8115 61.7319 15.5335 62.376 16.4134C62.602 16.7293 62.6472 17.1015 62.3647 17.3384C61.6528 17.9476 60.3872 19.0531 59.6753 19.651Z" fill="black"/>
<path fill-rule="evenodd" clip-rule="evenodd" d="M10.3056 11.1453C10.3056 12.5103 10.3395 13.6384 9.6502 14.8454C9.0965 15.8268 8.2151 16.436 7.232 16.436C5.8873 16.436 5.1076 15.4094 5.1076 13.9091C5.1076 10.931 7.7744 10.3895 10.3056 10.3895V11.1453ZM13.8312 19.651C13.6052 19.854 13.2662 19.8766 13.0063 19.7299C11.8424 18.7711 11.639 18.3198 10.9949 17.4061C9.0739 19.3577 7.7179 19.9443 5.2319 19.9443C2.2939 19.9443 0 18.1281 0 14.507C0 11.6755 1.5368 9.74652 3.729 8.79894C5.6274 7.96417 8.2829 7.81752 10.3056 7.58062V7.1294C10.3056 6.29462 10.3734 5.3132 9.8875 4.60252C9.4581 3.95952 8.6445 3.68879 7.9213 3.68879C6.5879 3.68879 5.4014 4.37691 5.1076 5.78699C5.0511 6.10285 4.8138 6.40743 4.4974 6.42999L1.1074 6.06901C0.8249 6.00133 0.5085 5.77571 0.5876 5.33577C1.3673 1.24088 5.085 0 8.4072 0C10.1135 0 12.3283 0.451228 13.673 1.73723C15.3793 3.3278 15.2098 5.43729 15.2098 7.73855V13.1758C15.2098 14.8115 15.8878 15.5335 16.5319 16.4134C16.7579 16.7293 16.8031 17.1015 16.5206 17.3384C15.8087 17.9476 14.5431 19.0531 13.8312 19.651Z" fill="black"/>
</g>
<defs>
<clipPath id="clip0_437_1531">
<rect width="113" height="34" fill="white"/>
</clipPath>
</defs>
</svg>

<svg width="113" height="34" fill="none" xmlns="http://www.w3.org/2000/svg"><g clip-path="url(#a)" fill-rule="evenodd" clip-rule="evenodd"><path d="M70.105 26.589C63.54 31.417 54.025 34 45.821 34 34.33 34 23.99 29.76 16.16 22.697c-.61-.553-.068-1.309.678-.88 8.441 4.907 18.894 7.851 29.674 7.851 7.277 0 15.277-1.5 22.634-4.625 1.118-.462 2.045.733.96 1.546Z" fill="#f90"/><path d="M72.829 23.464c-.837-1.072-5.549-.508-7.662-.26-.644.08-.746-.485-.158-.88 3.751-2.64 9.91-1.872 10.633-.992.723.89-.192 7.05-3.718 9.994-.542.452-1.062.215-.813-.383.79-1.974 2.565-6.396 1.718-7.48Z" fill="#f90"/><path d="M65.314 3.711v-2.56a.63.63 0 0 1 .644-.643H77.45c.373 0 .667.27.667.643v2.2c0 .372-.317.845-.87 1.612l-5.944 8.483c2.215-.056 4.554.271 6.554 1.4.452.259.576.631.61.992v2.73c0 .372-.418.812-.847.587-3.537-1.85-8.238-2.053-12.148.022-.395.214-.813-.214-.813-.587v-2.594c0-.417 0-1.128.418-1.76l6.904-9.882h-6c-.373 0-.667-.26-.667-.643ZM23.38 19.707h-3.492a.647.647 0 0 1-.622-.598V1.196c0-.361.306-.643.679-.643h3.265a.65.65 0 0 1 .633.598v2.346h.068C24.758 1.23 26.363.18 28.51.18c2.192 0 3.56 1.06 4.543 3.317C33.9 1.23 35.82.18 37.878.18c1.469 0 3.073.61 4.045 1.963 1.107 1.512.881 3.7.881 5.618v11.303c0 .361-.305.643-.678.643h-3.491c-.35-.022-.633-.304-.633-.643V9.566c0-.756.068-2.64-.102-3.362-.26-1.207-1.04-1.545-2.056-1.545-.848 0-1.73.564-2.09 1.466-.362.903-.329 2.414-.329 3.43v9.498c0 .361-.305.643-.678.643h-3.48c-.35-.023-.633-.305-.633-.643V9.555c0-1.997.328-4.941-2.158-4.941-2.509 0-2.418 2.865-2.418 4.94v9.499a.668.668 0 0 1-.678.654ZM88.027.17c5.187 0 8 4.444 8 10.107 0 5.46-3.107 9.803-8 9.803-5.096 0-7.865-4.445-7.865-9.995-.011-5.573 2.803-9.916 7.865-9.916Zm.023 3.665c-2.577 0-2.735 3.497-2.735 5.686 0 2.188-.034 6.87 2.712 6.87 2.712 0 2.836-3.768 2.836-6.07 0-1.51-.067-3.316-.52-4.748-.395-1.253-1.175-1.738-2.293-1.738ZM102.751 19.707h-3.48c-.35-.022-.633-.304-.633-.643V1.14a.666.666 0 0 1 .678-.586h3.243a.666.666 0 0 1 .621.496V3.79h.068c.983-2.448 2.35-3.62 4.769-3.62 1.57 0 3.096.563 4.079 2.109.915 1.432.915 3.846.915 5.572v11.281c-.034.316-.327.564-.678.564h-3.503c-.316-.023-.587-.26-.621-.564V9.408c0-1.963.226-4.828-2.192-4.828-.848 0-1.639.564-2.023 1.433-.497 1.094-.554 2.188-.554 3.395v9.645a.685.685 0 0 1-.689.654ZM56.15 11.145c0 1.365.034 2.493-.656 3.7-.553.982-1.446 1.591-2.418 1.591-1.345 0-2.124-1.027-2.124-2.527 0-2.978 2.666-3.52 5.209-3.52l-.011.756Zm3.525 8.506a.717.717 0 0 1-.825.079c-1.163-.959-1.367-1.41-2.011-2.324-1.921 1.952-3.277 2.538-5.763 2.538-2.95 0-5.232-1.816-5.232-5.437 0-2.832 1.537-4.76 3.73-5.708 1.898-.835 4.553-.981 6.576-1.218v-.452c0-.834.068-1.816-.43-2.526-.418-.643-1.243-.914-1.966-.914-1.333 0-2.52.688-2.814 2.098-.056.316-.293.62-.61.643l-3.39-.361c-.282-.068-.61-.293-.52-.733C47.211 1.24 50.93 0 54.251 0c1.707 0 3.921.451 5.266 1.737 1.706 1.59 1.537 3.7 1.537 6.002v5.437c0 1.636.678 2.357 1.322 3.237.226.316.271.689-.011.925-.712.61-1.978 1.715-2.69 2.313ZM10.306 11.145c0 1.365.034 2.493-.656 3.7-.553.982-1.435 1.591-2.418 1.591-1.345 0-2.124-1.027-2.124-2.527 0-2.978 2.666-3.52 5.198-3.52v.756Zm3.525 8.506a.717.717 0 0 1-.825.079c-1.164-.959-1.367-1.41-2.011-2.324-1.921 1.952-3.277 2.538-5.763 2.538C2.294 19.944 0 18.128 0 14.507c0-2.832 1.537-4.76 3.729-5.708 1.898-.835 4.554-.981 6.577-1.218v-.452c0-.834.067-1.816-.418-2.526-.43-.643-1.243-.914-1.967-.914-1.333 0-2.52.688-2.813 2.098-.057.316-.294.62-.61.643l-3.39-.361c-.283-.068-.6-.293-.52-.733C1.368 1.24 5.085 0 8.408 0c1.706 0 3.92.451 5.265 1.737 1.706 1.59 1.537 3.7 1.537 6.002v5.437c0 1.636.678 2.357 1.322 3.237.226.316.271.689-.011.925-.712.61-1.978 1.715-2.69 2.313Z" fill="#000"/></g><defs><clipPath id="a"><path fill="#fff" d="M0 0h113v34H0z"/></clipPath></defs></svg>
